src/assets/icon.svg

<svg width="35" height="48" viewBox="0 0 35 48" fill="none" xmlns="http://www.w3.org/2000/svg">
<mask id="mask0_9_68" style="mask-type:alpha" maskUnits="userSpaceOnUse" x="0" y="0" width="35" height="48">
<path d="M24.6818 0H34.4091V32.4546C34.4091 35.4546 33.7348 38.0607 32.3864 40.2728C31.053 42.4849 29.197 44.1894 26.8182 45.3864C24.4394 46.5834 21.6742 47.1819 18.5227 47.1819C15.7197 47.1819 13.1742 46.6894 10.8864 45.7046C8.61365 44.7046 6.81062 43.1894 5.47728 41.1591C4.14395 39.1137 3.48486 36.5455 3.50001 33.4546H13.2955C13.3258 34.6819 13.5758 35.7349 14.0455 36.6137C14.5303 37.4773 15.1894 38.144 16.0227 38.6137C16.8712 39.0682 17.8712 39.2955 19.0227 39.2955C20.2348 39.2955 21.2576 39.0379 22.0909 38.5228C22.9394 37.9925 23.5833 37.2197 24.0227 36.2046C24.4621 35.1894 24.6818 33.9394 24.6818 32.4546V0Z" fill="white"/>
<path d="M3.5 27.0455V32.0455H13.2941V27.0455H17L9.05882 18.5455L0 27.0455H3.5Z" fill="white"/>
</mask>
<g mask="url(#mask0_9_68)">
<path d="M11.3874 6.68631C16.9039 -1.75479 28.2189 -4.12557 36.66 1.39103V1.39103C45.1011 6.90763 47.4719 18.2226 41.9553 26.6637L30.8384 43.674C25.3218 52.1151 14.0068 54.4859 5.56571 48.9693V48.9693C-2.87539 43.4527 -5.24617 32.1377 0.270426 23.6966L11.3874 6.68631Z" fill="url(#paint0_linear_9_68)"/>
</g>
<defs>
<linearGradient id="paint0_linear_9_68" x1="21.376" y1="-8.59766" x2="51.944" y2="11.3797" gradientUnits="userSpaceOnUse">
<stop stop-color="#9B91D9"/>
<stop offset="0.18" stop-color="#91A3D9"/>
<stop offset="0.375" stop-color="#9FD98F"/>
<stop offset="0.58" stop-color="#D6D991"/>
<stop offset="0.78" stop-color="#FFD9AC"/>
<stop offset="1" stop-color="#D18FB2"/>
</linearGradient>
</defs>
</svg>

<svg width="48" height="48" viewBox="-5 0 48 48" fill="none" xmlns="http://www.w3.org/2000/svg">
  <mask id="a" style="mask-type:alpha" maskUnits="userSpaceOnUse" x="0" y="0" width="60" height="48">
    <path d="M24.682 0h9.727v32.455c0 3-.674 5.606-2.023 7.818-1.333 2.212-3.189 3.916-5.568 5.113-2.379 1.197-5.144 1.796-8.295 1.796-2.803 0-5.349-.493-7.637-1.477-2.272-1-4.075-2.516-5.409-4.546-1.333-2.045-1.992-4.614-1.977-7.704h9.796c.03 1.227.28 2.28.75 3.159a5.122 5.122 0 0 0 1.977 2c.848.454 1.848.681 3 .681 1.212 0 2.235-.257 3.068-.772.848-.53 1.492-1.303 1.932-2.318.44-1.016.659-2.266.659-3.75V0Z" fill="#fff"/>
    <path d="M3.5 27.046v5h9.794v-5H17l-7.941-8.5L0 27.046h3.5Z" fill="#fff"/>
  </mask>
  <g mask="url(#a)">
    <path d="M11.387 6.686C16.904-1.754 28.22-4.126 36.66 1.391c8.441 5.517 10.812 16.832 5.295 25.273l-11.117 17.01c-5.516 8.441-16.831 10.812-25.272 5.295C-2.875 43.453-5.246 32.138.27 23.697l11.117-17.01Z" fill="url(#b)"/>
  </g>
  <defs>
    <linearGradient id="b" x1="21.376" y1="-8.598" x2="51.944" y2="11.38" gradientUnits="userSpaceOnUse">
      <stop stop-color="#9B91D9"/>
      <stop offset=".18" stop-color="#91A3D9"/>
      <stop offset=".375" stop-color="#9FD98F"/>
      <stop offset=".58" stop-color="#D6D991"/>
      <stop offset=".78" stop-color="#FFD9AC"/>
      <stop offset="1" stop-color="#D18FB2"/>
    </linearGradient>
  </defs>
</svg>
